X:052
T:Fairy Queen (hornpipe), The 
B:CRE3.230 (BanrÃÂÃÂÃÂÃÂ­on na SiÃÂÃÂÃÂÃÂ³g)
F:file ID: cre.3/052fairy_q
R:hornpipe
L:1/8
Q:150
M:C
K:D
(3ABc|d2 (3edc d2AD|(3FED FA dAFD|G2FG edef|(3gfe cA dcBA|
"5"d2 (3edc d2AD|(3FED FA dAFD|G2FG edef|(3gfe cA d2:|
zA|"9"dff2 gee2|dcdf ba^ga|geAF G2ef|gee2 ^gee2|
"13"dcd2 gfga|ba^ga baga|geAF G2ef|(3gfe cA d3A|
"17"dff2 gecA|dcdf ba^ga|geAF G2ef|gee2 ^gee2|
"21"dcdf gfga|baba baba|(3gfe AF G2ef|(3gfe cA d4 |]

%%%

